; generated by SuperSlicer 2.3.55 on 2021-04-18 at 20:31:59 UTC

; 

; external perimeters extrusion width = 0.79mm
; perimeters extrusion width = 0.84mm
; infill extrusion width = 0.84mm
; solid infill extrusion width = 0.41mm
; top infill extrusion width = 0.41mm


M201 X500 Y500 Z500 E10000 ; sets maximum accelerations, mm/sec^2
M203 X500 Y500 Z12 E2 ; sets maximum feedrates, mm/sec
M204 P1500 R1500 T1500 ; sets acceleration (P, T) and retract acceleration (R), mm/sec^2
M205 X5.00 Y5.00 Z0.20 E2.50 ; sets the jerk limits, mm/sec
M205 S0 T0 ; sets the minimum extruding and travel feed rate, mm/sec
;TYPE:Custom
; custom gcode: start_gcode
M92 E9600         ;Set extruder steps per mm
G90                     ;Set current position to home
M302 S0             ;Allows for cold extrusion
M83                   ; 
M106 S0
M104 S0 T0
T0
G92 X0 Y0 Z0 E0
G92 E0
M120; disable endstops
M907 E1000 ; Extruder current to 1A
M204 S300 ; set printing acceleration to 50mm/s for most moves
G1 E0.200 F10.000  ;Prime the Extruder
; custom gcode end: start_gcode
G21 ; set units to millimeters
G90 ; use absolute coordinates
M83 ; use relative distances for extrusion
; custom gcode: start_filament_gcode
; Filament gcode
; custom gcode end: start_filament_gcode
M106 S242.25
;LAYER_CHANGE
;Z:0.41
;HEIGHT:0.41
G1 E-0.20000 F120.00000
G1 Z0.500000 F30000.000
G1 X5.007 Y4.276
G1 Z0.410000
G1 E0.20000 F120.00000
;TYPE:External perimeter
G1 F1200.000
G1 X4.670 Y4.670 E0.00185
G1 X3.882 Y5.344 E0.00369
G1 X2.999 Y5.885 E0.00369
G1 X2.041 Y6.282 E0.00369
G1 X1.033 Y6.524 E0.00369
G1 X0.000 Y6.605 E0.00369
G1 X-1.033 Y6.524 E0.00369
G1 X-2.041 Y6.282 E0.00369
G1 X-2.999 Y5.885 E0.00369
G1 X-3.882 Y5.344 E0.00369
G1 X-4.670 Y4.670 E0.00369
G1 X-5.344 Y3.882 E0.00369
G1 X-5.885 Y2.999 E0.00369
G1 X-6.282 Y2.041 E0.00369
G1 X-6.524 Y1.033 E0.00369
G1 X-6.605 Y0.000 E0.00369
G1 X-6.524 Y-1.033 E0.00369
G1 X-6.282 Y-2.041 E0.00369
G1 X-5.885 Y-2.999 E0.00369
G1 X-5.344 Y-3.882 E0.00369
G1 X-4.670 Y-4.670 E0.00369
G1 X-3.882 Y-5.344 E0.00369
G1 X-2.999 Y-5.885 E0.00369
G1 X-2.041 Y-6.282 E0.00369
G1 X-1.033 Y-6.524 E0.00369
G1 X0.000 Y-6.605 E0.00369
G1 X1.033 Y-6.524 E0.00369
G1 X2.041 Y-6.282 E0.00369
G1 X2.999 Y-5.885 E0.00369
G1 X3.882 Y-5.344 E0.00369
G1 X4.670 Y-4.670 E0.00369
G1 X5.344 Y-3.882 E0.00369
G1 X5.885 Y-2.999 E0.00369
G1 X6.282 Y-2.041 E0.00369
G1 X6.524 Y-1.033 E0.00369
G1 X6.605 Y0.000 E0.00369
G1 X6.524 Y1.033 E0.00369
G1 X6.282 Y2.041 E0.00369
G1 X5.885 Y2.999 E0.00369
G1 X5.344 Y3.882 E0.00369
G1 X5.080 Y4.191 E0.00145
G1 E-0.20000 F120.00000
G1 Z0.910000 F30000.000
G1 X0.206 Y5.877
G1 Z0.410000
G1 E0.20000 F120.00000
;TYPE:Internal infill
G1 F1200.000
G1 X0.694 Y5.031 E0.00376
G1 X3.036 Y5.031 E0.00901
G1 X2.676 Y5.251 E0.00162
G1 X1.821 Y5.605 E0.00356
G1 X0.922 Y5.821 E0.00356
G1 X0.318 Y5.868 E0.00233
G1 E-0.20000 F120.00000
G1 Z0.910000 F30000.000
G1 X-0.116 Y2.871
G1 Z0.410000
G1 E0.20000 F120.00000
G1 F1200.000
G1 X-3.046 Y2.871 E0.01128
G1 X-3.856 Y4.275 E0.00624
G1 X-4.042 Y4.275 E0.00071
G1 X-4.167 Y4.167 E0.00064
G1 X-4.768 Y3.464 E0.00356
G1 X-5.251 Y2.676 E0.00356
G1 X-5.605 Y1.821 E0.00356
G1 X-5.821 Y0.922 E0.00356
G1 X-5.837 Y0.712 E0.00081
G1 X-3.856 Y0.712 E0.00763
G1 X-3.046 Y2.115 E0.00624
G1 X-0.116 Y2.115 E0.01128
G1 X0.694 Y0.712 E0.00624
G1 X3.624 Y0.712 E0.01128
G1 X4.435 Y2.115 E0.00624
G1 X5.483 Y2.115 E0.00404
G1 X5.251 Y2.676 E0.00233
G1 X5.131 Y2.871 E0.00088
G1 X4.435 Y2.871 E0.00268
G1 X3.624 Y4.275 E0.00624
G1 X0.694 Y4.275 E0.01128
G1 X-0.060 Y2.969 E0.00580
G1 E-0.20000 F120.00000
G1 Z0.910000 F30000.000
G1 X-0.116 Y-1.447
G1 Z0.410000
G1 E0.20000 F120.00000
G1 F1200.000
G1 X-3.046 Y-1.447 E0.01128
G1 X-3.856 Y-0.044 E0.00624
G1 X-5.890 Y-0.044 E0.00783
G1 X-5.821 Y-0.922 E0.00339
G1 X-5.605 Y-1.821 E0.00356
G1 X-5.251 Y-2.676 E0.00356
G1 X-4.768 Y-3.464 E0.00356
G1 X-4.646 Y-3.607 E0.00072
G1 X-3.856 Y-3.607 E0.00304
G1 X-3.046 Y-2.203 E0.00624
G1 X-0.116 Y-2.203 E0.01128
G1 X0.694 Y-3.607 E0.00624
G1 X3.624 Y-3.607 E0.01128
G1 X4.435 Y-2.203 E0.00624
G1 X5.447 Y-2.203 E0.00390
G1 X5.605 Y-1.821 E0.00159
G1 X5.695 Y-1.447 E0.00148
G1 X4.435 Y-1.447 E0.00485
G1 X3.624 Y-0.044 E0.00624
G1 X0.694 Y-0.044 E0.01128
G1 X-0.060 Y-1.350 E0.00580
G1 E-0.20000 F120.00000
G1 Z0.910000 F30000.000
G1 X-3.856 Y-4.362
G1 Z0.410000
G1 E0.20000 F120.00000
G1 F1200.000
G1 X-3.939 Y-4.362 E0.00032
G1 X-3.775 Y-4.502 E0.00083
G1 X-3.800 Y-4.460 E0.00019
G1 E-0.20000 F120.00000
G1 Z0.910000 F30000.000
G1 X-0.116 Y-5.766
G1 Z0.410000
G1 E0.20000 F120.00000
G1 F1200.000
G1 X-1.151 Y-5.766 E0.00398
G1 X-0.922 Y-5.821 E0.00091
G1 X0.000 Y-5.894 E0.00356
G1 X0.922 Y-5.821 E0.00356
G1 X1.821 Y-5.605 E0.00356
G1 X2.676 Y-5.251 E0.00356
G1 X3.464 Y-4.768 E0.00356
G1 X3.728 Y-4.542 E0.00134
G1 X3.624 Y-4.362 E0.00080
G1 X0.694 Y-4.362 E0.01128
G1 X-0.060 Y-5.669 E0.00580
M106 S244.8
;LAYER_CHANGE
;Z:0.82
;HEIGHT:0.41
G1 E-0.20000 F120.00000
G1 Z0.910000 F30000.000
G1 X-0.133 Y-6.595
G1 Z0.820000
G1 E0.20000 F120.00000
;TYPE:External perimeter
G1 F1200.000
G1 X0.000 Y-6.605 E0.00047
G1 X1.033 Y-6.524 E0.00369
G1 X2.041 Y-6.282 E0.00369
G1 X2.999 Y-5.885 E0.00369
G1 X3.882 Y-5.344 E0.00369
G1 X4.670 Y-4.670 E0.00369
G1 X5.344 Y-3.882 E0.00369
G1 X5.885 Y-2.999 E0.00369
G1 X6.282 Y-2.041 E0.00369
G1 X6.524 Y-1.033 E0.00369
G1 X6.605 Y0.000 E0.00369
G1 X6.524 Y1.033 E0.00369
G1 X6.282 Y2.041 E0.00369
G1 X5.885 Y2.999 E0.00369
G1 X5.344 Y3.882 E0.00369
G1 X4.670 Y4.670 E0.00369
G1 X3.882 Y5.344 E0.00369
G1 X2.999 Y5.885 E0.00369
G1 X2.041 Y6.282 E0.00369
G1 X1.033 Y6.524 E0.00369
G1 X0.000 Y6.605 E0.00369
G1 X-1.033 Y6.524 E0.00369
G1 X-2.041 Y6.282 E0.00369
G1 X-2.999 Y5.885 E0.00369
G1 X-3.882 Y5.344 E0.00369
G1 X-4.670 Y4.670 E0.00369
G1 X-5.344 Y3.882 E0.00369
G1 X-5.885 Y2.999 E0.00369
G1 X-6.282 Y2.041 E0.00369
G1 X-6.524 Y1.033 E0.00369
G1 X-6.605 Y0.000 E0.00369
G1 X-6.524 Y-1.033 E0.00369
G1 X-6.282 Y-2.041 E0.00369
G1 X-5.885 Y-2.999 E0.00369
G1 X-5.344 Y-3.882 E0.00369
G1 X-4.670 Y-4.670 E0.00369
G1 X-3.882 Y-5.344 E0.00369
G1 X-2.999 Y-5.885 E0.00369
G1 X-2.041 Y-6.282 E0.00369
G1 X-1.033 Y-6.524 E0.00369
G1 X-0.245 Y-6.586 E0.00282
G1 X-0.044 Y-5.890 F30000.000
;TYPE:Internal infill
G1 F1200.000
G1 X0.922 Y-5.821 E0.00373
G1 X1.821 Y-5.605 E0.00356
G1 X2.676 Y-5.251 E0.00356
G1 X3.433 Y-4.787 E0.00342
G1 X2.970 Y-3.985 E0.00357
G1 X1.349 Y-3.985 E0.00624
G1 X-0.116 Y-1.447 E0.01128
G1 X0.694 Y-0.044 E0.00624
G1 X-0.770 Y2.493 E0.01128
G1 X-2.391 Y2.493 E0.00624
G1 X-3.625 Y4.631 E0.00950
G1 X-4.205 Y4.123 E0.00296
G1 X-3.046 Y2.115 E0.00892
G1 X-3.856 Y0.712 E0.00624
G1 X-2.391 Y-1.825 E0.01128
G1 X-0.770 Y-1.825 E0.00624
G1 X0.694 Y-4.362 E0.01128
G1 X-0.116 Y-5.766 E0.00624
G1 X-0.101 Y-5.793 E0.00012
G1 E-0.20000 F120.00000
G1 Z1.320000 F30000.000
G1 X4.020 Y-4.293
G1 Z0.820000
G1 E0.20000 F120.00000
G1 F1200.000
G1 X4.167 Y-4.167 E0.00074
G1 X4.768 Y-3.464 E0.00356
G1 X5.251 Y-2.676 E0.00356
G1 X5.603 Y-1.825 E0.00354
G1 X5.089 Y-1.825 E0.00198
G1 X3.624 Y0.712 E0.01128
G1 X4.435 Y2.115 E0.00624
G1 X2.970 Y4.653 E0.01128
G1 X1.349 Y4.653 E0.00624
G1 X0.663 Y5.841 E0.00528
G1 X0.000 Y5.894 E0.00256
G1 X-0.230 Y5.875 E0.00089
G1 X0.694 Y4.275 E0.00711
G1 X-0.116 Y2.871 E0.00624
G1 X1.349 Y0.334 E0.01128
G1 X2.970 Y0.334 E0.00624
G1 X4.435 Y-2.203 E0.01128
G1 X3.624 Y-3.607 E0.00624
G1 X3.964 Y-4.195 E0.00262
G1 E-0.20000 F120.00000
G1 Z1.320000 F30000.000
G1 X5.089 Y2.493
G1 Z0.820000
G1 E0.20000 F120.00000
G1 F1200.000
G1 X5.327 Y2.493 E0.00091
G1 X5.251 Y2.676 E0.00076
G1 X4.768 Y3.464 E0.00356
G1 X4.167 Y4.167 E0.00356
G1 X4.079 Y4.243 E0.00045
G1 X5.033 Y2.591 E0.00734
G1 E-0.20000 F120.00000
G1 Z1.320000 F30000.000
G1 X-3.046 Y-2.203
G1 Z0.820000
G1 E0.20000 F120.00000
G1 F1200.000
G1 X-4.510 Y0.334 E0.01128
G1 X-5.867 Y0.334 E0.00522
G1 X-5.894 Y0.000 E0.00129
G1 X-5.821 Y-0.922 E0.00356
G1 X-5.605 Y-1.821 E0.00356
G1 X-5.251 Y-2.676 E0.00356
G1 X-4.768 Y-3.464 E0.00356
G1 X-4.167 Y-4.167 E0.00356
G1 X-3.464 Y-4.768 E0.00356
G1 X-3.033 Y-5.032 E0.00195
G1 X-3.856 Y-3.607 E0.00634
G1 X-3.102 Y-2.301 E0.00580
;LAYER_CHANGE
;Z:1.23
;HEIGHT:0.41
G1 E-0.20000 F120.00000
G1 Z1.320000 F30000.000
G1 X-5.179 Y-4.075
G1 Z1.230000
G1 E0.20000 F120.00000
;TYPE:External perimeter
G1 F1200.000
G1 X-4.670 Y-4.670 E0.00279
G1 X-3.882 Y-5.344 E0.00369
G1 X-2.999 Y-5.885 E0.00369
G1 X-2.041 Y-6.282 E0.00369
G1 X-1.033 Y-6.524 E0.00369
G1 X0.000 Y-6.605 E0.00369
G1 X1.033 Y-6.524 E0.00369
G1 X2.041 Y-6.282 E0.00369
G1 X2.999 Y-5.885 E0.00369
G1 X3.882 Y-5.344 E0.00369
G1 X4.670 Y-4.670 E0.00369
G1 X5.344 Y-3.882 E0.00369
G1 X5.885 Y-2.999 E0.00369
G1 X6.282 Y-2.041 E0.00369
G1 X6.524 Y-1.033 E0.00369
G1 X6.605 Y0.000 E0.00369
G1 X6.524 Y1.033 E0.00369
G1 X6.282 Y2.041 E0.00369
G1 X5.885 Y2.999 E0.00369
G1 X5.344 Y3.882 E0.00369
G1 X4.670 Y4.670 E0.00369
G1 X3.882 Y5.344 E0.00369
G1 X2.999 Y5.885 E0.00369
G1 X2.041 Y6.282 E0.00369
G1 X1.033 Y6.524 E0.00369
G1 X0.000 Y6.605 E0.00369
G1 X-1.033 Y6.524 E0.00369
G1 X-2.041 Y6.282 E0.00369
G1 X-2.999 Y5.885 E0.00369
G1 X-3.882 Y5.344 E0.00369
G1 X-4.670 Y4.670 E0.00369
G1 X-5.344 Y3.882 E0.00369
G1 X-5.885 Y2.999 E0.00369
G1 X-6.282 Y2.041 E0.00369
G1 X-6.524 Y1.033 E0.00369
G1 X-6.605 Y0.000 E0.00369
G1 X-6.524 Y-1.033 E0.00369
G1 X-6.282 Y-2.041 E0.00369
G1 X-5.885 Y-2.999 E0.00369
G1 X-5.344 Y-3.882 E0.00369
G1 X-5.252 Y-3.989 E0.00050
G1 X-4.435 Y-3.854 F30000.000
;TYPE:Internal infill
G1 F1200.000
G1 X-3.046 Y-1.447 E0.01070
G1 X-3.856 Y-0.044 E0.00624
G1 X-2.391 Y2.493 E0.01128
G1 X-0.770 Y2.493 E0.00624
G1 X0.694 Y5.031 E0.01128
G1 X0.206 Y5.877 E0.00376
G1 X0.000 Y5.894 E0.00079
G1 X-0.922 Y5.821 E0.00356
G1 X-1.821 Y5.605 E0.00356
G1 X-2.676 Y5.251 E0.00356
G1 X-3.464 Y4.768 E0.00356
G1 X-3.675 Y4.587 E0.00107
G1 X-3.856 Y4.275 E0.00139
G1 X-3.046 Y2.871 E0.00624
G1 X-4.510 Y0.334 E0.01128
G1 X-5.867 Y0.334 E0.00522
G1 X-5.894 Y0.000 E0.00129
G1 X-5.821 Y-0.922 E0.00356
G1 X-5.605 Y-1.821 E0.00356
G1 X-5.251 Y-2.676 E0.00356
G1 X-4.768 Y-3.464 E0.00356
G1 X-4.508 Y-3.768 E0.00154
G1 X-3.775 Y-4.502 F30000.000
G1 F1200.000
G1 X-3.464 Y-4.768 E0.00157
G1 X-2.676 Y-5.251 E0.00356
G1 X-1.821 Y-5.605 E0.00356
G1 X-0.922 Y-5.821 E0.00356
G1 X-0.599 Y-5.846 E0.00125
G1 X0.694 Y-3.607 E0.00995
G1 X-0.116 Y-2.203 E0.00624
G1 X1.349 Y0.334 E0.01128
G1 X2.970 Y0.334 E0.00624
G1 X4.435 Y2.871 E0.01128
G1 X3.624 Y4.275 E0.00624
G1 X3.762 Y4.514 E0.00106
G1 X3.464 Y4.768 E0.00151
G1 X3.148 Y4.962 E0.00143
G1 X2.970 Y4.653 E0.00137
G1 X1.349 Y4.653 E0.00624
G1 X-0.116 Y2.115 E0.01128
G1 X0.694 Y0.712 E0.00624
G1 X-0.770 Y-1.825 E0.01128
G1 X-2.391 Y-1.825 E0.00624
G1 X-3.856 Y-4.362 E0.01128
G1 X-3.832 Y-4.405 E0.00019
G1 E-0.20000 F120.00000
G1 Z1.730000 F30000.000
G1 X0.259 Y-5.873
G1 Z1.230000
G1 E0.20000 F120.00000
G1 F1200.000
G1 X0.922 Y-5.821 E0.00256
G1 X1.821 Y-5.605 E0.00356
G1 X2.676 Y-5.251 E0.00356
G1 X3.464 Y-4.768 E0.00356
G1 X3.728 Y-4.542 E0.00134
G1 X3.624 Y-4.362 E0.00080
G1 X5.089 Y-1.825 E0.01128
G1 X5.603 Y-1.825 E0.00198
G1 X5.821 Y-0.922 E0.00358
G1 X5.894 Y0.000 E0.00356
G1 X5.821 Y0.922 E0.00356
G1 X5.605 Y1.821 E0.00356
G1 X5.327 Y2.493 E0.00280
G1 X5.089 Y2.493 E0.00091
G1 X3.624 Y-0.044 E0.01128
G1 X4.435 Y-1.447 E0.00624
G1 X2.970 Y-3.985 E0.01128
G1 X1.349 Y-3.985 E0.00624
G1 X0.315 Y-5.776 E0.00796
;LAYER_CHANGE
;Z:1.64
;HEIGHT:0.41
G1 E-0.20000 F120.00000
G1 Z1.730000 F30000.000
G1 X0.378 Y-6.575
G1 Z1.640000
G1 E0.20000 F120.00000
;TYPE:External perimeter
G1 F1200.000
G1 X1.033 Y-6.524 E0.00234
G1 X2.041 Y-6.282 E0.00369
G1 X2.999 Y-5.885 E0.00369
G1 X3.882 Y-5.344 E0.00369
G1 X4.670 Y-4.670 E0.00369
G1 X5.344 Y-3.882 E0.00369
G1 X5.885 Y-2.999 E0.00369
G1 X6.282 Y-2.041 E0.00369
G1 X6.524 Y-1.033 E0.00369
G1 X6.605 Y0.000 E0.00369
G1 X6.524 Y1.033 E0.00369
G1 X6.282 Y2.041 E0.00369
G1 X5.885 Y2.999 E0.00369
G1 X5.344 Y3.882 E0.00369
G1 X4.670 Y4.670 E0.00369
G1 X3.882 Y5.344 E0.00369
G1 X2.999 Y5.885 E0.00369
G1 X2.041 Y6.282 E0.00369
G1 X1.033 Y6.524 E0.00369
G1 X0.000 Y6.605 E0.00369
G1 X-1.033 Y6.524 E0.00369
G1 X-2.041 Y6.282 E0.00369
G1 X-2.999 Y5.885 E0.00369
G1 X-3.882 Y5.344 E0.00369
G1 X-4.670 Y4.670 E0.00369
G1 X-5.344 Y3.882 E0.00369
G1 X-5.885 Y2.999 E0.00369
G1 X-6.282 Y2.041 E0.00369
G1 X-6.524 Y1.033 E0.00369
G1 X-6.605 Y0.000 E0.00369
G1 X-6.524 Y-1.033 E0.00369
G1 X-6.282 Y-2.041 E0.00369
G1 X-5.885 Y-2.999 E0.00369
G1 X-5.344 Y-3.882 E0.00369
G1 X-4.670 Y-4.670 E0.00369
G1 X-3.882 Y-5.344 E0.00369
G1 X-2.999 Y-5.885 E0.00369
G1 X-2.041 Y-6.282 E0.00369
G1 X-1.033 Y-6.524 E0.00369
G1 X0.000 Y-6.605 E0.00369
G1 X0.266 Y-6.584 E0.00095
G1 E-0.20000 F120.00000
G1 Z2.140000 F30000.000
G1 X3.624 Y-4.362
G1 Z1.640000
G1 E0.20000 F120.00000
;TYPE:Internal infill
G1 F1200.000
G1 X0.694 Y-4.362 E0.01128
G1 X-0.116 Y-5.766 E0.00624
G1 X-1.151 Y-5.766 E0.00398
G1 X-0.922 Y-5.821 E0.00091
G1 X0.000 Y-5.894 E0.00356
G1 X0.922 Y-5.821 E0.00356
G1 X1.821 Y-5.605 E0.00356
G1 X2.676 Y-5.251 E0.00356
G1 X3.464 Y-4.768 E0.00356
G1 X3.728 Y-4.542 E0.00134
G1 X3.680 Y-4.460 E0.00037
G1 E-0.20000 F120.00000
G1 Z2.140000 F30000.000
G1 X-3.775 Y-4.502
G1 Z1.640000
G1 E0.20000 F120.00000
G1 F1200.000
G1 X-3.856 Y-4.362 E0.00062
G1 X-3.939 Y-4.362 E0.00032
G1 X-3.861 Y-4.429 E0.00040
G1 E-0.20000 F120.00000
G1 Z2.140000 F30000.000
G1 X-3.046 Y-2.203
G1 Z1.640000
G1 E0.20000 F120.00000
G1 F1200.000
G1 X-0.116 Y-2.203 E0.01128
G1 X0.694 Y-3.607 E0.00624
G1 X3.624 Y-3.607 E0.01128
G1 X4.435 Y-2.203 E0.00624
G1 X5.447 Y-2.203 E0.00390
G1 X5.605 Y-1.821 E0.00159
G1 X5.695 Y-1.447 E0.00148
G1 X4.435 Y-1.447 E0.00485
G1 X3.624 Y-0.044 E0.00624
G1 X0.694 Y-0.044 E0.01128
G1 X-0.116 Y-1.447 E0.00624
G1 X-3.046 Y-1.447 E0.01128
G1 X-3.856 Y-0.044 E0.00624
G1 X-5.890 Y-0.044 E0.00783
G1 X-5.821 Y-0.922 E0.00339
G1 X-5.605 Y-1.821 E0.00356
G1 X-5.251 Y-2.676 E0.00356
G1 X-4.768 Y-3.464 E0.00356
G1 X-4.646 Y-3.607 E0.00072
G1 X-3.856 Y-3.607 E0.00304
G1 X-3.102 Y-2.301 E0.00580
G1 E-0.20000 F120.00000
G1 Z2.140000 F30000.000
G1 X-3.046 Y2.115
G1 Z1.640000
G1 E0.20000 F120.00000
G1 F1200.000
G1 X-0.116 Y2.115 E0.01128
G1 X0.694 Y0.712 E0.00624
G1 X3.624 Y0.712 E0.01128
G1 X4.435 Y2.115 E0.00624
G1 X5.483 Y2.115 E0.00404
G1 X5.251 Y2.676 E0.00233
G1 X5.131 Y2.871 E0.00088
G1 X4.435 Y2.871 E0.00268
G1 X3.624 Y4.275 E0.00624
G1 X0.694 Y4.275 E0.01128
G1 X-0.116 Y2.871 E0.00624
G1 X-3.046 Y2.871 E0.01128
G1 X-3.856 Y4.275 E0.00624
G1 X-4.042 Y4.275 E0.00071
G1 X-4.167 Y4.167 E0.00064
G1 X-4.768 Y3.464 E0.00356
G1 X-5.251 Y2.676 E0.00356
G1 X-5.605 Y1.821 E0.00356
G1 X-5.821 Y0.922 E0.00356
G1 X-5.837 Y0.712 E0.00081
G1 X-3.856 Y0.712 E0.00763
G1 X-3.102 Y2.018 E0.00580
G1 E-0.20000 F120.00000
G1 Z2.140000 F30000.000
G1 X0.694 Y5.031
G1 Z1.640000
G1 E0.20000 F120.00000
G1 F1200.000
G1 X3.036 Y5.031 E0.00901
G1 X2.676 Y5.251 E0.00162
G1 X1.821 Y5.605 E0.00356
G1 X0.922 Y5.821 E0.00356
G1 X0.206 Y5.877 E0.00277
G1 X0.638 Y5.128 E0.00333
;LAYER_CHANGE
;Z:2.05
;HEIGHT:0.41
G1 E-0.20000 F120.00000
G1 Z2.140000 F30000.000
G1 X0.750 Y6.546
G1 Z2.050000
G1 E0.20000 F120.00000
;TYPE:External perimeter
G1 F1200.000
G1 X0.000 Y6.605 E0.00268
G1 X-1.033 Y6.524 E0.00369
G1 X-2.041 Y6.282 E0.00369
G1 X-2.999 Y5.885 E0.00369
G1 X-3.882 Y5.344 E0.00369
G1 X-4.670 Y4.670 E0.00369
G1 X-5.344 Y3.882 E0.00369
G1 X-5.885 Y2.999 E0.00369
G1 X-6.282 Y2.041 E0.00369
G1 X-6.524 Y1.033 E0.00369
G1 X-6.605 Y0.000 E0.00369
G1 X-6.524 Y-1.033 E0.00369
G1 X-6.282 Y-2.041 E0.00369
G1 X-5.885 Y-2.999 E0.00369
G1 X-5.344 Y-3.882 E0.00369
G1 X-4.670 Y-4.670 E0.00369
G1 X-3.882 Y-5.344 E0.00369
G1 X-2.999 Y-5.885 E0.00369
G1 X-2.041 Y-6.282 E0.00369
G1 X-1.033 Y-6.524 E0.00369
G1 X0.000 Y-6.605 E0.00369
G1 X1.033 Y-6.524 E0.00369
G1 X2.041 Y-6.282 E0.00369
G1 X2.999 Y-5.885 E0.00369
G1 X3.882 Y-5.344 E0.00369
G1 X4.670 Y-4.670 E0.00369
G1 X5.344 Y-3.882 E0.00369
G1 X5.885 Y-2.999 E0.00369
G1 X6.282 Y-2.041 E0.00369
G1 X6.524 Y-1.033 E0.00369
G1 X6.605 Y0.000 E0.00369
G1 X6.524 Y1.033 E0.00369
G1 X6.282 Y2.041 E0.00369
G1 X5.885 Y2.999 E0.00369
G1 X5.344 Y3.882 E0.00369
