; generated by SuperSlicer 2.3.55 on 2021-04-18 at 20:40:12 UTC

; 

; external perimeters extrusion width = 0.79mm
; perimeters extrusion width = 0.84mm
; infill extrusion width = 0.84mm
; solid infill extrusion width = 0.41mm
; top infill extrusion width = 0.41mm


M201 X500 Y500 Z500 E10000 ; sets maximum accelerations, mm/sec^2
M203 X500 Y500 Z12 E2 ; sets maximum feedrates, mm/sec
M204 P1500 R1500 T1500 ; sets acceleration (P, T) and retract acceleration (R), mm/sec^2
M205 X5.00 Y5.00 Z0.20 E2.50 ; sets the jerk limits, mm/sec
M205 S0 T0 ; sets the minimum extruding and travel feed rate, mm/sec
;TYPE:Custom
; custom gcode: start_gcode
M92 E9600         ;Set extruder steps per mm
G90                     ;Set current position to home
M302 S0             ;Allows for cold extrusion
M83                   ; 
M106 S0
M104 S0 T0
T0
G92 X0 Y0 Z0 E0
G92 E0
M120; disable endstops
M907 E1000 ; Extruder current to 1A
M204 S300 ; set printing acceleration to 50mm/s for most moves
G1 E0.200 F10.000  ;Prime the Extruder
; custom gcode end: start_gcode
G21 ; set units to millimeters
G90 ; use absolute coordinates
M83 ; use relative distances for extrusion
; custom gcode: start_filament_gcode
; Filament gcode
; custom gcode end: start_filament_gcode
M106 S252.45
;LAYER_CHANGE
;Z:0.41
;HEIGHT:0.41
G1 E-0.20000 F120.00000
G1 Z0.500000 F30000.000
G1 X5.007 Y4.276
G1 Z0.410000
G1 E0.20000 F120.00000
;TYPE:External perimeter
G1 F1200.000
G1 X4.670 Y4.670 E0.00185
G1 X3.882 Y5.344 E0.00369
G1 X2.999 Y5.885 E0.00369
G1 X2.041 Y6.282 E0.00369
G1 X1.033 Y6.524 E0.00369
G1 X0.000 Y6.605 E0.00369
G1 X-1.033 Y6.524 E0.00369
G1 X-2.041 Y6.282 E0.00369
G1 X-2.999 Y5.885 E0.00369
G1 X-3.882 Y5.344 E0.00369
G1 X-4.670 Y4.670 E0.00369
G1 X-5.344 Y3.882 E0.00369
G1 X-5.885 Y2.999 E0.00369
G1 X-6.282 Y2.041 E0.00369
G1 X-6.524 Y1.033 E0.00369
G1 X-6.605 Y0.000 E0.00369
G1 X-6.524 Y-1.033 E0.00369
G1 X-6.282 Y-2.041 E0.00369
G1 X-5.885 Y-2.999 E0.00369
G1 X-5.344 Y-3.882 E0.00369
G1 X-4.670 Y-4.670 E0.00369
G1 X-3.882 Y-5.344 E0.00369
G1 X-2.999 Y-5.885 E0.00369
G1 X-2.041 Y-6.282 E0.00369
G1 X-1.033 Y-6.524 E0.00369
G1 X0.000 Y-6.605 E0.00369
G1 X1.033 Y-6.524 E0.00369
G1 X2.041 Y-6.282 E0.00369
G1 X2.999 Y-5.885 E0.00369
G1 X3.882 Y-5.344 E0.00369
G1 X4.670 Y-4.670 E0.00369
G1 X5.344 Y-3.882 E0.00369
G1 X5.885 Y-2.999 E0.00369
G1 X6.282 Y-2.041 E0.00369
G1 X6.524 Y-1.033 E0.00369
G1 X6.605 Y0.000 E0.00369
G1 X6.524 Y1.033 E0.00369
G1 X6.282 Y2.041 E0.00369
G1 X5.885 Y2.999 E0.00369
G1 X5.344 Y3.882 E0.00369
G1 X5.080 Y4.191 E0.00145
G1 E-0.20000 F120.00000
G1 Z0.910000 F30000.000
G1 X-4.485 Y4.319
G1 Z0.410000
G1 E0.20000 F120.00000
;TYPE:Internal infill
G1 F1200.000
G1 X3.990 Y4.319 E0.03262
G1 X4.167 Y4.167 E0.00090
G1 X4.768 Y3.464 E0.00356
G1 X5.251 Y2.676 E0.00356
G1 X5.465 Y2.159 E0.00215
G1 X-5.465 Y2.159 E0.04207
G1 X-5.605 Y1.821 E0.00141
G1 X-5.821 Y0.922 E0.00356
G1 X-5.894 Y0.000 E0.00356
G1 X5.894 Y0.000 E0.04537
G1 X5.821 Y-0.922 E0.00356
G1 X5.605 Y-1.821 E0.00356
G1 X5.465 Y-2.159 E0.00141
G1 X-5.465 Y-2.159 E0.04207
G1 X-5.251 Y-2.676 E0.00215
G1 X-4.768 Y-3.464 E0.00356
G1 X-4.167 Y-4.167 E0.00356
G1 X-3.990 Y-4.319 E0.00090
G1 X4.485 Y-4.319 E0.03262
;LAYER_CHANGE
;Z:0.82
;HEIGHT:0.41
G1 E-0.20000 F120.00000
G1 Z0.910000 F30000.000
G1 X4.766 Y-4.558
G1 Z0.820000
G1 E0.20000 F120.00000
;TYPE:External perimeter
G1 F1200.000
G1 X5.344 Y-3.882 E0.00317
G1 X5.885 Y-2.999 E0.00369
G1 X6.282 Y-2.041 E0.00369
G1 X6.524 Y-1.033 E0.00369
G1 X6.605 Y0.000 E0.00369
G1 X6.524 Y1.033 E0.00369
G1 X6.282 Y2.041 E0.00369
G1 X5.885 Y2.999 E0.00369
G1 X5.344 Y3.882 E0.00369
G1 X4.670 Y4.670 E0.00369
G1 X3.882 Y5.344 E0.00369
G1 X2.999 Y5.885 E0.00369
G1 X2.041 Y6.282 E0.00369
G1 X1.033 Y6.524 E0.00369
G1 X0.000 Y6.605 E0.00369
G1 X-1.033 Y6.524 E0.00369
G1 X-2.041 Y6.282 E0.00369
G1 X-2.999 Y5.885 E0.00369
G1 X-3.882 Y5.344 E0.00369
G1 X-4.670 Y4.670 E0.00369
G1 X-5.344 Y3.882 E0.00369
G1 X-5.885 Y2.999 E0.00369
G1 X-6.282 Y2.041 E0.00369
G1 X-6.524 Y1.033 E0.00369
G1 X-6.605 Y0.000 E0.00369
G1 X-6.524 Y-1.033 E0.00369
G1 X-6.282 Y-2.041 E0.00369
G1 X-5.885 Y-2.999 E0.00369
G1 X-5.344 Y-3.882 E0.00369
G1 X-4.670 Y-4.670 E0.00369
G1 X-3.882 Y-5.344 E0.00369
G1 X-2.999 Y-5.885 E0.00369
G1 X-2.041 Y-6.282 E0.00369
G1 X-1.033 Y-6.524 E0.00369
G1 X0.000 Y-6.605 E0.00369
G1 X1.033 Y-6.524 E0.00369
G1 X2.041 Y-6.282 E0.00369
G1 X2.999 Y-5.885 E0.00369
G1 X3.882 Y-5.344 E0.00369
G1 X4.693 Y-4.644 E0.00381
G1 E-0.20000 F120.00000
G1 Z1.320000 F30000.000
G1 X-3.200 Y5.329
G1 Z0.820000
G1 E0.20000 F120.00000
;TYPE:Internal infill
G1 F1200.000
G1 X4.966 Y3.140 E0.03254
G1 X5.251 Y2.676 E0.00210
G1 X5.605 Y1.821 E0.00356
G1 X5.821 Y0.922 E0.00356
G1 X5.841 Y0.670 E0.00097
G1 X-4.734 Y3.504 E0.04214
G1 X-4.768 Y3.464 E0.00020
G1 X-5.251 Y2.676 E0.00356
G1 X-5.605 Y1.821 E0.00356
G1 X-5.677 Y1.521 E0.00119
G1 X5.677 Y-1.521 E0.04524
G1 X5.605 Y-1.821 E0.00119
G1 X5.251 Y-2.676 E0.00356
G1 X4.768 Y-3.464 E0.00356
G1 X4.734 Y-3.504 E0.00020
G1 X-5.841 Y-0.670 E0.04214
G1 X-5.821 Y-0.922 E0.00097
G1 X-5.605 Y-1.821 E0.00356
G1 X-5.251 Y-2.676 E0.00356
G1 X-4.966 Y-3.140 E0.00210
G1 X3.200 Y-5.329 E0.03254
;LAYER_CHANGE
;Z:1.23
;HEIGHT:0.41
G1 E-0.20000 F120.00000
G1 Z1.320000 F30000.000
G1 X3.393 Y-5.643
G1 Z1.230000
G1 E0.20000 F120.00000
;TYPE:External perimeter
G1 F1200.000
G1 X3.882 Y-5.344 E0.00204
G1 X4.670 Y-4.670 E0.00369
G1 X5.344 Y-3.882 E0.00369
G1 X5.885 Y-2.999 E0.00369
G1 X6.282 Y-2.041 E0.00369
G1 X6.524 Y-1.033 E0.00369
G1 X6.605 Y0.000 E0.00369
G1 X6.524 Y1.033 E0.00369
G1 X6.282 Y2.041 E0.00369
G1 X5.885 Y2.999 E0.00369
G1 X5.344 Y3.882 E0.00369
G1 X4.670 Y4.670 E0.00369
G1 X3.882 Y5.344 E0.00369
G1 X2.999 Y5.885 E0.00369
G1 X2.041 Y6.282 E0.00369
G1 X1.033 Y6.524 E0.00369
G1 X0.000 Y6.605 E0.00369
G1 X-1.033 Y6.524 E0.00369
G1 X-2.041 Y6.282 E0.00369
G1 X-2.999 Y5.885 E0.00369
G1 X-3.882 Y5.344 E0.00369
G1 X-4.670 Y4.670 E0.00369
G1 X-5.344 Y3.882 E0.00369
G1 X-5.885 Y2.999 E0.00369
G1 X-6.282 Y2.041 E0.00369
G1 X-6.524 Y1.033 E0.00369
G1 X-6.605 Y0.000 E0.00369
G1 X-6.524 Y-1.033 E0.00369
G1 X-6.282 Y-2.041 E0.00369
G1 X-5.885 Y-2.999 E0.00369
G1 X-5.344 Y-3.882 E0.00369
G1 X-4.670 Y-4.670 E0.00369
G1 X-3.882 Y-5.344 E0.00369
G1 X-2.999 Y-5.885 E0.00369
G1 X-2.041 Y-6.282 E0.00369
G1 X-1.033 Y-6.524 E0.00369
G1 X0.000 Y-6.605 E0.00369
G1 X1.033 Y-6.524 E0.00369
G1 X2.041 Y-6.282 E0.00369
G1 X2.999 Y-5.885 E0.00369
G1 X3.297 Y-5.702 E0.00125
G1 E-0.20000 F120.00000
G1 Z1.730000 F30000.000
G1 X-1.719 Y5.979
G1 Z1.230000
G1 E0.20000 F120.00000
;TYPE:Internal infill
G1 F1200.000
G1 X5.625 Y1.739 E0.03264
G1 X5.821 Y0.922 E0.00324
G1 X5.894 Y0.000 E0.00356
G1 X5.825 Y-0.870 E0.00336
G1 X-3.656 Y4.604 E0.04214
G1 X-4.167 Y4.167 E0.00259
G1 X-4.768 Y3.464 E0.00356
G1 X-5.090 Y2.939 E0.00237
G1 X5.090 Y-2.939 E0.04524
G1 X4.768 Y-3.464 E0.00237
G1 X4.167 Y-4.167 E0.00356
G1 X3.656 Y-4.604 E0.00259
G1 X-5.825 Y0.870 E0.04214
G1 X-5.894 Y-0.000 E0.00336
G1 X-5.821 Y-0.922 E0.00356
G1 X-5.625 Y-1.739 E0.00324
G1 X1.719 Y-5.979 E0.03264
;LAYER_CHANGE
;Z:1.64
;HEIGHT:0.41
G1 E-0.20000 F120.00000
G1 Z1.730000 F30000.000
G1 X1.805 Y-6.338
G1 Z1.640000
G1 E0.20000 F120.00000
;TYPE:External perimeter
G1 F1200.000
G1 X2.041 Y-6.282 E0.00086
G1 X2.999 Y-5.885 E0.00369
G1 X3.882 Y-5.344 E0.00369
G1 X4.670 Y-4.670 E0.00369
G1 X5.344 Y-3.882 E0.00369
G1 X5.885 Y-2.999 E0.00369
G1 X6.282 Y-2.041 E0.00369
G1 X6.524 Y-1.033 E0.00369
G1 X6.605 Y0.000 E0.00369
G1 X6.524 Y1.033 E0.00369
G1 X6.282 Y2.041 E0.00369
G1 X5.885 Y2.999 E0.00369
G1 X5.344 Y3.882 E0.00369
G1 X4.670 Y4.670 E0.00369
G1 X3.882 Y5.344 E0.00369
G1 X2.999 Y5.885 E0.00369
G1 X2.041 Y6.282 E0.00369
G1 X1.033 Y6.524 E0.00369
G1 X0.000 Y6.605 E0.00369
G1 X-1.033 Y6.524 E0.00369
G1 X-2.041 Y6.282 E0.00369
G1 X-2.999 Y5.885 E0.00369
G1 X-3.882 Y5.344 E0.00369
G1 X-4.670 Y4.670 E0.00369
G1 X-5.344 Y3.882 E0.00369
G1 X-5.885 Y2.999 E0.00369
G1 X-6.282 Y2.041 E0.00369
G1 X-6.524 Y1.033 E0.00369
G1 X-6.605 Y0.000 E0.00369
G1 X-6.524 Y-1.033 E0.00369
G1 X-6.282 Y-2.041 E0.00369
G1 X-5.885 Y-2.999 E0.00369
G1 X-5.344 Y-3.882 E0.00369
G1 X-4.670 Y-4.670 E0.00369
G1 X-3.882 Y-5.344 E0.00369
G1 X-2.999 Y-5.885 E0.00369
G1 X-2.041 Y-6.282 E0.00369
G1 X-1.033 Y-6.524 E0.00369
G1 X0.000 Y-6.605 E0.00369
G1 X1.033 Y-6.524 E0.00369
G1 X1.696 Y-6.365 E0.00243
G1 E-0.20000 F120.00000
G1 Z2.140000 F30000.000
G1 X-0.118 Y6.225
G1 Z1.640000
G1 E0.20000 F120.00000
;TYPE:Internal infill
G1 F1200.000
G1 X5.875 Y0.232 E0.03262
G1 X5.894 Y0.000 E0.00090
G1 X5.821 Y-0.922 E0.00356
G1 X5.605 Y-1.821 E0.00356
G1 X5.391 Y-2.337 E0.00215
G1 X-2.337 Y5.391 E0.04207
G1 X-2.676 Y5.251 E0.00141
G1 X-3.464 Y4.768 E0.00356
G1 X-4.167 Y4.167 E0.00356
G1 X4.167 Y-4.167 E0.04537
G1 X3.464 Y-4.768 E0.00356
G1 X2.676 Y-5.251 E0.00356
G1 X2.337 Y-5.391 E0.00141
G1 X-5.391 Y2.337 E0.04207
G1 X-5.605 Y1.821 E0.00215
G1 X-5.821 Y0.922 E0.00356
G1 X-5.894 Y0.000 E0.00356
G1 X-5.875 Y-0.232 E0.00090
G1 X0.118 Y-6.225 E0.03262
;LAYER_CHANGE
;Z:2.05
;HEIGHT:0.41
G1 E-0.20000 F120.00000
G1 Z2.140000 F30000.000
G1 X0.147 Y-6.593
G1 Z2.050000
G1 E0.20000 F120.00000
;TYPE:External perimeter
G1 F1200.000
G1 X1.033 Y-6.524 E0.00317
G1 X2.041 Y-6.282 E0.00369
G1 X2.999 Y-5.885 E0.00369
G1 X3.882 Y-5.344 E0.00369
G1 X4.670 Y-4.670 E0.00369
G1 X5.344 Y-3.882 E0.00369
G1 X5.885 Y-2.999 E0.00369
G1 X6.282 Y-2.041 E0.00369
G1 X6.524 Y-1.033 E0.00369
G1 X6.605 Y0.000 E0.00369
G1 X6.524 Y1.033 E0.00369
G1 X6.282 Y2.041 E0.00369
G1 X5.885 Y2.999 E0.00369
G1 X5.344 Y3.882 E0.00369
G1 X4.670 Y4.670 E0.00369
G1 X3.882 Y5.344 E0.00369
G1 X2.999 Y5.885 E0.00369
G1 X2.041 Y6.282 E0.00369
G1 X1.033 Y6.524 E0.00369
G1 X0.000 Y6.605 E0.00369
G1 X-1.033 Y6.524 E0.00369
G1 X-2.041 Y6.282 E0.00369
G1 X-2.999 Y5.885 E0.00369
G1 X-3.882 Y5.344 E0.00369
G1 X-4.670 Y4.670 E0.00369
G1 X-5.344 Y3.882 E0.00369
G1 X-5.885 Y2.999 E0.00369
G1 X-6.282 Y2.041 E0.00369
G1 X-6.524 Y1.033 E0.00369
G1 X-6.605 Y0.000 E0.00369
G1 X-6.524 Y-1.033 E0.00369
G1 X-6.282 Y-2.041 E0.00369
G1 X-5.885 Y-2.999 E0.00369
G1 X-5.344 Y-3.882 E0.00369
G1 X-4.670 Y-4.670 E0.00369
G1 X-3.882 Y-5.344 E0.00369
G1 X-2.999 Y-5.885 E0.00369
G1 X-2.041 Y-6.282 E0.00369
G1 X-1.033 Y-6.524 E0.00369
G1 X0.035 Y-6.602 E0.00381
G1 E-0.20000 F120.00000
G1 Z2.550000 F30000.000
G1 X1.505 Y6.031
G1 Z2.050000
G1 E0.20000 F120.00000
;TYPE:Internal infill
G1 F1200.000
G1 X5.732 Y-1.291 E0.03254
G1 X5.605 Y-1.821 E0.00210
G1 X5.251 Y-2.676 E0.00356
G1 X4.768 Y-3.464 E0.00356
G1 X4.604 Y-3.656 E0.00097
G1 X-0.870 Y5.825 E0.04214
G1 X-0.922 Y5.821 E0.00020
G1 X-1.821 Y5.605 E0.00356
G1 X-2.676 Y5.251 E0.00356
G1 X-2.939 Y5.090 E0.00119
G1 X2.939 Y-5.090 E0.04524
G1 X2.676 Y-5.251 E0.00119
G1 X1.821 Y-5.605 E0.00356
G1 X0.922 Y-5.821 E0.00356
G1 X0.870 Y-5.825 E0.00020
G1 X-4.604 Y3.656 E0.04214
G1 X-4.768 Y3.464 E0.00097
G1 X-5.251 Y2.676 E0.00356
G1 X-5.605 Y1.821 E0.00356
G1 X-5.732 Y1.291 E0.00210
G1 X-1.505 Y-6.031 E0.03254
;LAYER_CHANGE
;Z:2.46
;HEIGHT:0.41
G1 E-0.20000 F120.00000
G1 Z2.550000 F30000.000
G1 X-1.591 Y-6.390
G1 Z2.460000
G1 E0.20000 F120.00000
;TYPE:External perimeter
G1 F1200.000
G1 X-1.033 Y-6.524 E0.00204
G1 X0.000 Y-6.605 E0.00369
G1 X1.033 Y-6.524 E0.00369
G1 X2.041 Y-6.282 E0.00369
G1 X2.999 Y-5.885 E0.00369
G1 X3.882 Y-5.344 E0.00369
G1 X4.670 Y-4.670 E0.00369
G1 X5.344 Y-3.882 E0.00369
G1 X5.885 Y-2.999 E0.00369
G1 X6.282 Y-2.041 E0.00369
G1 X6.524 Y-1.033 E0.00369
G1 X6.605 Y0.000 E0.00369
G1 X6.524 Y1.033 E0.00369
G1 X6.282 Y2.041 E0.00369
G1 X5.885 Y2.999 E0.00369
G1 X5.344 Y3.882 E0.00369
G1 X4.670 Y4.670 E0.00369
G1 X3.882 Y5.344 E0.00369
G1 X2.999 Y5.885 E0.00369
G1 X2.041 Y6.282 E0.00369
G1 X1.033 Y6.524 E0.00369
G1 X0.000 Y6.605 E0.00369
G1 X-1.033 Y6.524 E0.00369
G1 X-2.041 Y6.282 E0.00369
G1 X-2.999 Y5.885 E0.00369
G1 X-3.882 Y5.344 E0.00369
G1 X-4.670 Y4.670 E0.00369
G1 X-5.344 Y3.882 E0.00369
G1 X-5.885 Y2.999 E0.00369
G1 X-6.282 Y2.041 E0.00369
G1 X-6.524 Y1.033 E0.00369
G1 X-6.605 Y0.000 E0.00369
G1 X-6.524 Y-1.033 E0.00369
G1 X-6.282 Y-2.041 E0.00369
G1 X-5.885 Y-2.999 E0.00369
G1 X-5.344 Y-3.882 E0.00369
G1 X-4.670 Y-4.670 E0.00369
G1 X-3.882 Y-5.344 E0.00369
G1 X-2.999 Y-5.885 E0.00369
G1 X-2.041 Y-6.282 E0.00369
G1 X-1.700 Y-6.364 E0.00125
G1 E-0.20000 F120.00000
G1 Z2.960000 F30000.000
G1 X3.012 Y5.444
G1 Z2.460000
G1 E0.20000 F120.00000
;TYPE:Internal infill
G1 F1200.000
G1 X5.207 Y-2.747 E0.03264
G1 X4.768 Y-3.464 E0.00324
G1 X4.167 Y-4.167 E0.00356
G1 X3.504 Y-4.734 E0.00336
G1 X0.670 Y5.841 E0.04214
G1 X0.000 Y5.894 E0.00259
G1 X-0.922 Y5.821 E0.00356
G1 X-1.521 Y5.677 E0.00237
G1 X1.521 Y-5.677 E0.04524
G1 X0.922 Y-5.821 E0.00237
G1 X0.000 Y-5.894 E0.00356
G1 X-0.670 Y-5.841 E0.00259
G1 X-3.504 Y4.734 E0.04214
G1 X-4.167 Y4.167 E0.00336
G1 X-4.768 Y3.464 E0.00356
G1 X-5.207 Y2.747 E0.00324
G1 X-3.012 Y-5.444 E0.03264
;LAYER_CHANGE
;Z:2.87
;HEIGHT:0.41
G1 E-0.20000 F120.00000
G1 Z2.960000 F30000.000
G1 X-3.205 Y-5.758
G1 Z2.870000
G1 E0.20000 F120.00000
;TYPE:External perimeter
G1 F1200.000
G1 X-2.999 Y-5.885 E0.00086
G1 X-2.041 Y-6.282 E0.00369
G1 X-1.033 Y-6.524 E0.00369
G1 X0.000 Y-6.605 E0.00369
G1 X1.033 Y-6.524 E0.00369
G1 X2.041 Y-6.282 E0.00369
G1 X2.999 Y-5.885 E0.00369
G1 X3.882 Y-5.344 E0.00369
G1 X4.670 Y-4.670 E0.00369
G1 X5.344 Y-3.882 E0.00369
G1 X5.885 Y-2.999 E0.00369
G1 X6.282 Y-2.041 E0.00369
G1 X6.524 Y-1.033 E0.00369
G1 X6.605 Y0.000 E0.00369
G1 X6.524 Y1.033 E0.00369
G1 X6.282 Y2.041 E0.00369
G1 X5.885 Y2.999 E0.00369
G1 X5.344 Y3.882 E0.00369
G1 X4.670 Y4.670 E0.00369
G1 X3.882 Y5.344 E0.00369
G1 X2.999 Y5.885 E0.00369
G1 X2.041 Y6.282 E0.00369
G1 X1.033 Y6.524 E0.00369
G1 X0.000 Y6.605 E0.00369
G1 X-1.033 Y6.524 E0.00369
G1 X-2.041 Y6.282 E0.00369
G1 X-2.999 Y5.885 E0.00369
G1 X-3.882 Y5.344 E0.00369
G1 X-4.670 Y4.670 E0.00369
G1 X-5.344 Y3.882 E0.00369
G1 X-5.885 Y2.999 E0.00369
G1 X-6.282 Y2.041 E0.00369
G1 X-6.524 Y1.033 E0.00369
G1 X-6.605 Y0.000 E0.00369
G1 X-6.524 Y-1.033 E0.00369
G1 X-6.282 Y-2.041 E0.00369
G1 X-5.885 Y-2.999 E0.00369
G1 X-5.344 Y-3.882 E0.00369
G1 X-4.670 Y-4.670 E0.00369
G1 X-3.882 Y-5.344 E0.00369
G1 X-3.301 Y-5.700 E0.00243
G1 E-0.20000 F120.00000
G1 Z3.370000 F30000.000
G1 X4.319 Y4.485
G1 Z2.870000
G1 E0.20000 F120.00000
;TYPE:Internal infill
G1 F1200.000
G1 X4.319 Y-3.990 E0.03262
G1 X4.167 Y-4.167 E0.00090
G1 X3.464 Y-4.768 E0.00356
G1 X2.676 Y-5.251 E0.00356
G1 X2.159 Y-5.465 E0.00215
G1 X2.159 Y5.465 E0.04207
G1 X1.821 Y5.605 E0.00141
G1 X0.922 Y5.821 E0.00356
G1 X0.000 Y5.894 E0.00356
G1 X0.000 Y-5.894 E0.04537
G1 X-0.922 Y-5.821 E0.00356
G1 X-1.821 Y-5.605 E0.00356
G1 X-2.159 Y-5.465 E0.00141
G1 X-2.159 Y5.465 E0.04207
G1 X-2.676 Y5.251 E0.00215
G1 X-3.464 Y4.768 E0.00356
G1 X-4.167 Y4.167 E0.00356
G1 X-4.319 Y3.990 E0.00090
G1 X-4.319 Y-4.485 E0.03262
;LAYER_CHANGE
;Z:3.28
;HEIGHT:0.41
G1 E-0.20000 F120.00000
G1 Z3.370000 F30000.000
G1 X-4.558 Y-4.766
G1 Z3.280000
G1 E0.20000 F120.00000
;TYPE:External perimeter
G1 F1200.000
G1 X-3.882 Y-5.344 E0.00317
G1 X-2.999 Y-5.885 E0.00369
G1 X-2.041 Y-6.282 E0.00369
G1 X-1.033 Y-6.524 E0.00369
G1 X0.000 Y-6.605 E0.00369
G1 X1.033 Y-6.524 E0.00369
G1 X2.041 Y-6.282 E0.00369
G1 X2.999 Y-5.885 E0.00369
G1 X3.882 Y-5.344 E0.00369
G1 X4.670 Y-4.670 E0.00369
G1 X5.344 Y-3.882 E0.00369
G1 X5.885 Y-2.999 E0.00369
G1 X6.282 Y-2.041 E0.00369
G1 X6.524 Y-1.033 E0.00369
G1 X6.605 Y0.000 E0.00369
G1 X6.524 Y1.033 E0.00369
G1 X6.282 Y2.041 E0.00369
G1 X5.885 Y2.999 E0.00369
G1 X5.344 Y3.882 E0.00369
G1 X4.670 Y4.670 E0.00369
G1 X3.882 Y5.344 E0.00369
G1 X2.999 Y5.885 E0.00369
G1 X2.041 Y6.282 E0.00369
G1 X1.033 Y6.524 E0.00369
G1 X0.000 Y6.605 E0.00369
G1 X-1.033 Y6.524 E0.00369
G1 X-2.041 Y6.282 E0.00369
G1 X-2.999 Y5.885 E0.00369
G1 X-3.882 Y5.344 E0.00369
G1 X-4.670 Y4.670 E0.00369
G1 X-5.344 Y3.882 E0.00369
G1 X-5.885 Y2.999 E0.00369
G1 X-6.282 Y2.041 E0.00369
G1 X-6.524 Y1.033 E0.00369
G1 X-6.605 Y0.000 E0.00369
G1 X-6.524 Y-1.033 E0.00369
G1 X-6.282 Y-2.041 E0.00369
G1 X-5.885 Y-2.999 E0.00369
G1 X-5.344 Y-3.882 E0.00369
G1 X-4.644 Y-4.693 E0.00381
