; generated by SuperSlicer 2.3.55 on 2021-04-18 at 20:32:51 UTC

; 

; external perimeters extrusion width = 0.79mm
; perimeters extrusion width = 0.84mm
; infill extrusion width = 0.84mm
; solid infill extrusion width = 0.41mm
; top infill extrusion width = 0.41mm


M201 X500 Y500 Z500 E10000 ; sets maximum accelerations, mm/sec^2
M203 X500 Y500 Z12 E2 ; sets maximum feedrates, mm/sec
M204 P1500 R1500 T1500 ; sets acceleration (P, T) and retract acceleration (R), mm/sec^2
M205 X5.00 Y5.00 Z0.20 E2.50 ; sets the jerk limits, mm/sec
M205 S0 T0 ; sets the minimum extruding and travel feed rate, mm/sec
;TYPE:Custom
; custom gcode: start_gcode
M92 E9600         ;Set extruder steps per mm
G90                     ;Set current position to home
M302 S0             ;Allows for cold extrusion
M83                   ; 
M106 S0
M104 S0 T0
T0
G92 X0 Y0 Z0 E0
G92 E0
M120; disable endstops
M907 E1000 ; Extruder current to 1A
M204 S300 ; set printing acceleration to 50mm/s for most moves
G1 E0.200 F10.000  ;Prime the Extruder
; custom gcode end: start_gcode
G21 ; set units to millimeters
G90 ; use absolute coordinates
M83 ; use relative distances for extrusion
; custom gcode: start_filament_gcode
; Filament gcode
; custom gcode end: start_filament_gcode
M106 S229.5
;LAYER_CHANGE
;Z:0.41
;HEIGHT:0.41
G1 E-0.20000 F120.00000
G1 Z0.500000 F30000.000
G1 X5.007 Y4.276
G1 Z0.410000
G1 E0.20000 F120.00000
;TYPE:External perimeter
G1 F1200.000
G1 X4.670 Y4.670 E0.00185
G1 X3.882 Y5.344 E0.00369
G1 X2.999 Y5.885 E0.00369
G1 X2.041 Y6.282 E0.00369
G1 X1.033 Y6.524 E0.00369
G1 X0.000 Y6.605 E0.00369
G1 X-1.033 Y6.524 E0.00369
G1 X-2.041 Y6.282 E0.00369
G1 X-2.999 Y5.885 E0.00369
G1 X-3.882 Y5.344 E0.00369
G1 X-4.670 Y4.670 E0.00369
G1 X-5.344 Y3.882 E0.00369
G1 X-5.885 Y2.999 E0.00369
G1 X-6.282 Y2.041 E0.00369
G1 X-6.524 Y1.033 E0.00369
G1 X-6.605 Y0.000 E0.00369
G1 X-6.524 Y-1.033 E0.00369
G1 X-6.282 Y-2.041 E0.00369
G1 X-5.885 Y-2.999 E0.00369
G1 X-5.344 Y-3.882 E0.00369
G1 X-4.670 Y-4.670 E0.00369
G1 X-3.882 Y-5.344 E0.00369
G1 X-2.999 Y-5.885 E0.00369
G1 X-2.041 Y-6.282 E0.00369
G1 X-1.033 Y-6.524 E0.00369
G1 X0.000 Y-6.605 E0.00369
G1 X1.033 Y-6.524 E0.00369
G1 X2.041 Y-6.282 E0.00369
G1 X2.999 Y-5.885 E0.00369
G1 X3.882 Y-5.344 E0.00369
G1 X4.670 Y-4.670 E0.00369
G1 X5.344 Y-3.882 E0.00369
G1 X5.885 Y-2.999 E0.00369
G1 X6.282 Y-2.041 E0.00369
G1 X6.524 Y-1.033 E0.00369
G1 X6.605 Y0.000 E0.00369
G1 X6.524 Y1.033 E0.00369
G1 X6.282 Y2.041 E0.00369
G1 X5.885 Y2.999 E0.00369
G1 X5.344 Y3.882 E0.00369
G1 X5.080 Y4.191 E0.00145
G1 E-0.20000 F120.00000
G1 Z0.910000 F30000.000
G1 X-3.283 Y4.565
G1 Z0.410000
G1 E0.20000 F120.00000
;TYPE:Internal infill
G1 F1200.000
G1 X-1.683 Y4.565 E0.00616
G1 X-1.538 Y4.816 E0.00112
G1 X0.062 Y4.816 E0.00616
G1 X0.208 Y4.565 E0.00112
G1 X1.808 Y4.565 E0.00616
G1 X1.953 Y4.816 E0.00112
G1 X3.385 Y4.816 E0.00551
G1 X2.676 Y5.251 E0.00320
G1 X1.821 Y5.605 E0.00356
G1 X0.922 Y5.821 E0.00356
G1 X0.208 Y5.824 E0.00275
G1 X0.062 Y5.572 E0.00112
G1 X-1.538 Y5.572 E0.00616
G1 X-1.589 Y5.661 E0.00039
G1 X-1.821 Y5.605 E0.00092
G1 X-2.676 Y5.251 E0.00356
G1 X-3.417 Y4.797 E0.00335
G1 X-3.339 Y4.662 E0.00060
G1 E-0.20000 F120.00000
G1 Z0.910000 F30000.000
G1 X-5.174 Y2.549
G1 Z0.410000
G1 E0.20000 F120.00000
G1 F1200.000
G1 X-5.028 Y2.801 E0.00112
G1 X-3.428 Y2.801 E0.00616
G1 X-3.283 Y2.549 E0.00112
G1 X-1.683 Y2.549 E0.00616
G1 X-1.538 Y2.801 E0.00112
G1 X0.062 Y2.801 E0.00616
G1 X0.208 Y2.549 E0.00112
G1 X1.808 Y2.549 E0.00616
G1 X1.953 Y2.801 E0.00112
G1 X3.553 Y2.801 E0.00616
G1 X3.698 Y2.549 E0.00112
G1 X5.301 Y2.554 E0.00617
G1 X5.251 Y2.676 E0.00051
G1 X4.768 Y3.464 E0.00356
G1 X4.474 Y3.809 E0.00174
G1 X3.698 Y3.809 E0.00298
G1 X3.553 Y3.557 E0.00112
G1 X1.953 Y3.557 E0.00616
G1 X1.808 Y3.809 E0.00112
G1 X0.208 Y3.809 E0.00616
G1 X0.062 Y3.557 E0.00112
G1 X-1.538 Y3.557 E0.00616
G1 X-1.683 Y3.809 E0.00112
G1 X-3.283 Y3.809 E0.00616
G1 X-3.428 Y3.557 E0.00112
G1 X-4.689 Y3.557 E0.00485
G1 X-4.768 Y3.464 E0.00047
G1 X-5.251 Y2.676 E0.00356
G1 X-5.304 Y2.549 E0.00053
G1 X-5.286 Y2.549 E0.00007
G1 X-5.286 Y1.793 F30000.000
G1 F1200.000
G1 X-5.612 Y1.793 E0.00125
G1 X-5.821 Y0.922 E0.00345
G1 X-5.851 Y0.534 E0.00150
G1 X-5.174 Y0.534 E0.00261
G1 X-5.028 Y0.786 E0.00112
G1 X-3.428 Y0.786 E0.00616
G1 X-3.283 Y0.534 E0.00112
G1 X-1.683 Y0.534 E0.00616
G1 X-1.538 Y0.786 E0.00112
G1 X0.062 Y0.786 E0.00616
G1 X0.208 Y0.534 E0.00112
G1 X1.808 Y0.534 E0.00616
G1 X1.953 Y0.786 E0.00112
G1 X3.553 Y0.786 E0.00616
G1 X3.698 Y0.534 E0.00112
G1 X5.298 Y0.534 E0.00616
G1 X5.444 Y0.786 E0.00112
G1 X5.832 Y0.786 E0.00149
G1 X5.821 Y0.922 E0.00053
G1 X5.672 Y1.541 E0.00245
G1 X5.444 Y1.541 E0.00088
G1 X5.298 Y1.793 E0.00112
G1 X3.698 Y1.793 E0.00616
G1 X3.553 Y1.541 E0.00112
G1 X1.953 Y1.541 E0.00616
G1 X1.808 Y1.793 E0.00112
G1 X0.208 Y1.793 E0.00616
G1 X0.062 Y1.541 E0.00112
G1 X-1.538 Y1.541 E0.00616
G1 X-1.683 Y1.793 E0.00112
G1 X-3.283 Y1.793 E0.00616
G1 X-3.428 Y1.541 E0.00112
G1 X-5.028 Y1.541 E0.00616
G1 X-5.174 Y1.793 E0.00112
G1 E-0.20000 F120.00000
G1 Z0.910000 F30000.000
G1 X-5.876 Y-0.222
G1 Z0.410000
G1 E0.20000 F120.00000
G1 F1200.000
G1 X-5.821 Y-0.922 E0.00270
G1 X-5.687 Y-1.482 E0.00222
G1 X-5.174 Y-1.482 E0.00197
G1 X-5.028 Y-1.230 E0.00112
G1 X-3.428 Y-1.230 E0.00616
G1 X-3.283 Y-1.482 E0.00112
G1 X-1.683 Y-1.482 E0.00616
G1 X-1.538 Y-1.230 E0.00112
G1 X0.062 Y-1.230 E0.00616
G1 X0.208 Y-1.482 E0.00112
G1 X1.808 Y-1.482 E0.00616
G1 X1.953 Y-1.230 E0.00112
G1 X3.553 Y-1.230 E0.00616
G1 X3.698 Y-1.482 E0.00112
G1 X5.298 Y-1.482 E0.00616
G1 X5.444 Y-1.230 E0.00112
G1 X5.747 Y-1.230 E0.00117
G1 X5.821 Y-0.922 E0.00122
G1 X5.856 Y-0.474 E0.00173
G1 X5.444 Y-0.474 E0.00159
G1 X5.298 Y-0.222 E0.00112
G1 X3.698 Y-0.222 E0.00616
G1 X3.553 Y-0.474 E0.00112
G1 X1.953 Y-0.474 E0.00616
G1 X1.808 Y-0.222 E0.00112
G1 X0.208 Y-0.222 E0.00616
G1 X0.062 Y-0.474 E0.00112
G1 X-1.538 Y-0.474 E0.00616
G1 X-1.683 Y-0.222 E0.00112
G1 X-3.283 Y-0.222 E0.00616
G1 X-3.428 Y-0.474 E0.00112
G1 X-5.028 Y-0.474 E0.00616
G1 X-5.174 Y-0.222 E0.00112
G1 X-5.764 Y-0.222 E0.00227
G1 E-0.20000 F120.00000
G1 Z0.910000 F30000.000
G1 X-5.174 Y-2.237
G1 Z0.410000
G1 E0.20000 F120.00000
G1 F1200.000
G1 X-5.433 Y-2.237 E0.00100
G1 X-5.251 Y-2.676 E0.00183
G1 X-4.902 Y-3.245 E0.00257
G1 X-3.428 Y-3.245 E0.00567
G1 X-3.283 Y-3.497 E0.00112
G1 X-1.683 Y-3.497 E0.00616
G1 X-1.538 Y-3.245 E0.00112
G1 X0.062 Y-3.245 E0.00616
G1 X0.208 Y-3.497 E0.00112
G1 X1.808 Y-3.497 E0.00616
G1 X1.953 Y-3.245 E0.00112
G1 X3.553 Y-3.245 E0.00616
G1 X3.698 Y-3.497 E0.00112
G1 X4.740 Y-3.497 E0.00401
G1 X5.251 Y-2.676 E0.00372
G1 X5.377 Y-2.373 E0.00126
G1 X5.298 Y-2.237 E0.00060
G1 X3.698 Y-2.237 E0.00616
G1 X3.553 Y-2.489 E0.00112
G1 X1.953 Y-2.489 E0.00616
G1 X1.808 Y-2.237 E0.00112
G1 X0.208 Y-2.237 E0.00616
G1 X0.062 Y-2.489 E0.00112
G1 X-1.538 Y-2.489 E0.00616
G1 X-1.683 Y-2.237 E0.00112
G1 X-3.283 Y-2.237 E0.00616
G1 X-3.428 Y-2.489 E0.00112
G1 X-5.028 Y-2.489 E0.00616
G1 X-5.118 Y-2.335 E0.00069
G1 E-0.20000 F120.00000
G1 Z0.910000 F30000.000
G1 X-3.772 Y-4.505
G1 Z0.410000
G1 E0.20000 F120.00000
G1 F1200.000
G1 X-3.464 Y-4.768 E0.00156
G1 X-2.676 Y-5.251 E0.00356
G1 X-2.045 Y-5.512 E0.00263
G1 X-1.683 Y-5.512 E0.00139
G1 X-1.538 Y-5.260 E0.00112
G1 X0.062 Y-5.260 E0.00616
G1 X0.208 Y-5.512 E0.00112
G1 X1.808 Y-5.512 E0.00616
G1 X1.953 Y-5.260 E0.00112
G1 X2.676 Y-5.251 E0.00278
G1 X3.464 Y-4.768 E0.00356
G1 X4.067 Y-4.253 E0.00305
G1 X3.698 Y-4.253 E0.00142
G1 X3.553 Y-4.505 E0.00112
G1 X1.953 Y-4.505 E0.00616
G1 X1.808 Y-4.253 E0.00112
G1 X0.208 Y-4.253 E0.00616
G1 X0.062 Y-4.505 E0.00112
G1 X-1.538 Y-4.505 E0.00616
G1 X-1.683 Y-4.253 E0.00112
G1 X-3.283 Y-4.253 E0.00616
G1 X-3.428 Y-4.505 E0.00112
G1 X-3.660 Y-4.505 E0.00089
;LAYER_CHANGE
;Z:0.82
;HEIGHT:0.41
G1 E-0.20000 F120.00000
G1 Z0.910000 F30000.000
G1 X-4.168 Y-5.100
G1 Z0.820000
G1 E0.20000 F120.00000
;TYPE:External perimeter
G1 F1200.000
G1 X-3.882 Y-5.344 E0.00134
G1 X-2.999 Y-5.885 E0.00369
G1 X-2.041 Y-6.282 E0.00369
G1 X-1.033 Y-6.524 E0.00369
G1 X0.000 Y-6.605 E0.00369
G1 X1.033 Y-6.524 E0.00369
G1 X2.041 Y-6.282 E0.00369
G1 X2.999 Y-5.885 E0.00369
G1 X3.882 Y-5.344 E0.00369
G1 X4.670 Y-4.670 E0.00369
G1 X5.344 Y-3.882 E0.00369
G1 X5.885 Y-2.999 E0.00369
G1 X6.282 Y-2.041 E0.00369
G1 X6.524 Y-1.033 E0.00369
G1 X6.605 Y0.000 E0.00369
G1 X6.524 Y1.033 E0.00369
G1 X6.282 Y2.041 E0.00369
G1 X5.885 Y2.999 E0.00369
G1 X5.344 Y3.882 E0.00369
G1 X4.670 Y4.670 E0.00369
G1 X3.882 Y5.344 E0.00369
G1 X2.999 Y5.885 E0.00369
G1 X2.041 Y6.282 E0.00369
G1 X1.033 Y6.524 E0.00369
G1 X0.000 Y6.605 E0.00369
G1 X-1.033 Y6.524 E0.00369
G1 X-2.041 Y6.282 E0.00369
G1 X-2.999 Y5.885 E0.00369
G1 X-3.882 Y5.344 E0.00369
G1 X-4.670 Y4.670 E0.00369
G1 X-5.344 Y3.882 E0.00369
G1 X-5.885 Y2.999 E0.00369
G1 X-6.282 Y2.041 E0.00369
G1 X-6.524 Y1.033 E0.00369
G1 X-6.605 Y0.000 E0.00369
G1 X-6.524 Y-1.033 E0.00369
G1 X-6.282 Y-2.041 E0.00369
G1 X-5.885 Y-2.999 E0.00369
G1 X-5.344 Y-3.882 E0.00369
G1 X-4.670 Y-4.670 E0.00369
G1 X-4.254 Y-5.027 E0.00195
G1 E-0.20000 F120.00000
G1 Z1.320000 F30000.000
G1 X-1.599 Y-5.658
G1 Z0.820000
G1 E0.20000 F120.00000
;TYPE:Internal infill
G1 F1200.000
G1 X-1.683 Y-5.512 E0.00065
G1 X-1.538 Y-5.260 E0.00112
G1 X-2.338 Y-3.875 E0.00616
G1 X-2.628 Y-3.875 E0.00112
G1 X-3.428 Y-2.489 E0.00616
G1 X-3.283 Y-2.237 E0.00112
G1 X-4.083 Y-0.852 E0.00616
G1 X-4.374 Y-0.852 E0.00112
G1 X-5.174 Y0.534 E0.00616
G1 X-5.028 Y0.786 E0.00112
G1 X-5.611 Y1.795 E0.00449
G1 X-5.821 Y0.922 E0.00346
G1 X-5.881 Y0.156 E0.00296
G1 X-5.828 Y0.156 E0.00020
G1 X-5.028 Y-1.230 E0.00616
G1 X-5.174 Y-1.482 E0.00112
G1 X-4.374 Y-2.867 E0.00616
G1 X-4.083 Y-2.867 E0.00112
G1 X-3.283 Y-4.253 E0.00616
G1 X-3.428 Y-4.505 E0.00112
G1 X-3.174 Y-4.946 E0.00196
G1 X-2.676 Y-5.251 E0.00225
G1 X-1.821 Y-5.605 E0.00356
G1 X-1.708 Y-5.632 E0.00045
G1 E-0.20000 F120.00000
G1 Z1.320000 F30000.000
G1 X0.827 Y-5.828
G1 Z0.820000
G1 E0.20000 F120.00000
G1 F1200.000
G1 X0.062 Y-4.505 E0.00588
G1 X0.208 Y-4.253 E0.00112
G1 X-0.592 Y-2.867 E0.00616
G1 X-0.883 Y-2.867 E0.00112
G1 X-1.683 Y-1.482 E0.00616
G1 X-1.538 Y-1.230 E0.00112
G1 X-2.338 Y0.156 E0.00616
G1 X-2.628 Y0.156 E0.00112
G1 X-3.428 Y1.541 E0.00616
G1 X-3.283 Y1.793 E0.00112
G1 X-4.083 Y3.179 E0.00616
G1 X-4.374 Y3.179 E0.00112
G1 X-4.631 Y3.624 E0.00198
G1 X-4.768 Y3.464 E0.00081
G1 X-5.099 Y2.924 E0.00244
G1 X-5.028 Y2.801 E0.00054
G1 X-5.174 Y2.549 E0.00112
G1 X-4.374 Y1.164 E0.00616
G1 X-4.083 Y1.164 E0.00112
G1 X-3.283 Y-0.222 E0.00616
G1 X-3.428 Y-0.474 E0.00112
G1 X-2.628 Y-1.859 E0.00616
G1 X-2.338 Y-1.859 E0.00112
G1 X-1.538 Y-3.245 E0.00616
G1 X-1.683 Y-3.497 E0.00112
G1 X-0.883 Y-4.883 E0.00616
G1 X-0.592 Y-4.883 E0.00112
G1 X-0.009 Y-5.893 E0.00449
G1 X0.714 Y-5.837 E0.00279
G1 X1.808 Y-5.512 F30000.000
G1 F1200.000
G1 X1.853 Y-5.592 E0.00035
G1 X2.676 Y-5.251 E0.00342
G1 X2.997 Y-5.054 E0.00145
G1 X2.898 Y-4.883 E0.00076
G1 X2.608 Y-4.883 E0.00112
G1 X1.808 Y-3.497 E0.00616
G1 X1.953 Y-3.245 E0.00112
G1 X1.153 Y-1.859 E0.00616
G1 X0.862 Y-1.859 E0.00112
G1 X0.062 Y-0.474 E0.00616
G1 X0.208 Y-0.222 E0.00112
G1 X-0.592 Y1.164 E0.00616
G1 X-0.883 Y1.164 E0.00112
G1 X-1.683 Y2.549 E0.00616
G1 X-1.538 Y2.801 E0.00112
G1 X-2.338 Y4.187 E0.00616
G1 X-2.628 Y4.187 E0.00112
G1 X-3.095 Y4.994 E0.00359
G1 X-3.464 Y4.768 E0.00167
G1 X-3.714 Y4.555 E0.00126
G1 X-3.283 Y3.809 E0.00332
G1 X-3.428 Y3.557 E0.00112
G1 X-2.628 Y2.171 E0.00616
G1 X-2.338 Y2.171 E0.00112
G1 X-1.538 Y0.786 E0.00616
G1 X-1.683 Y0.534 E0.00112
G1 X-0.883 Y-0.852 E0.00616
G1 X-0.592 Y-0.852 E0.00112
G1 X0.208 Y-2.237 E0.00616
G1 X0.062 Y-2.489 E0.00112
G1 X0.862 Y-3.875 E0.00616
G1 X1.153 Y-3.875 E0.00112
G1 X1.953 Y-5.260 E0.00616
G1 X1.864 Y-5.415 E0.00069
G1 X3.553 Y-4.505 F30000.000
G1 F1200.000
G1 X3.625 Y-4.630 E0.00056
G1 X4.167 Y-4.167 E0.00274
G1 X4.417 Y-3.875 E0.00148
G1 X4.353 Y-3.875 E0.00025
G1 X3.553 Y-2.489 E0.00616
G1 X3.698 Y-2.237 E0.00112
G1 X2.898 Y-0.852 E0.00616
G1 X2.608 Y-0.852 E0.00112
G1 X1.808 Y0.534 E0.00616
G1 X1.953 Y0.786 E0.00112
G1 X1.153 Y2.171 E0.00616
G1 X0.862 Y2.171 E0.00112
G1 X0.062 Y3.557 E0.00616
G1 X0.208 Y3.809 E0.00112
G1 X-0.592 Y5.194 E0.00616
G1 X-0.883 Y5.194 E0.00112
G1 X-1.206 Y5.753 E0.00248
G1 X-1.821 Y5.605 E0.00244
G1 X-1.960 Y5.548 E0.00058
G1 X-1.538 Y4.816 E0.00325
G1 X-1.683 Y4.565 E0.00112
G1 X-0.883 Y3.179 E0.00616
G1 X-0.592 Y3.179 E0.00112
G1 X0.208 Y1.793 E0.00616
G1 X0.062 Y1.541 E0.00112
G1 X0.862 Y0.156 E0.00616
G1 X1.153 Y0.156 E0.00112
G1 X1.953 Y-1.230 E0.00616
G1 X1.808 Y-1.482 E0.00112
G1 X2.608 Y-2.867 E0.00616
G1 X2.898 Y-2.867 E0.00112
G1 X3.698 Y-4.253 E0.00616
G1 X3.609 Y-4.407 E0.00069
G1 E-0.20000 F120.00000
G1 Z1.320000 F30000.000
G1 X5.251 Y-2.676
G1 Z0.820000
G1 E0.20000 F120.00000
G1 F1200.000
G1 X5.559 Y-1.933 E0.00309
G1 X5.298 Y-1.482 E0.00201
G1 X5.444 Y-1.230 E0.00112
G1 X4.644 Y0.156 E0.00616
G1 X4.353 Y0.156 E0.00112
G1 X3.553 Y1.541 E0.00616
G1 X3.698 Y1.793 E0.00112
G1 X2.898 Y3.179 E0.00616
G1 X2.608 Y3.179 E0.00112
G1 X1.808 Y4.565 E0.00616
G1 X1.953 Y4.816 E0.00112
G1 X1.446 Y5.695 E0.00391
G1 X0.922 Y5.821 E0.00207
G1 X0.176 Y5.880 E0.00288
G1 X0.208 Y5.824 E0.00025
G1 X0.062 Y5.572 E0.00112
G1 X0.862 Y4.187 E0.00616
G1 X1.153 Y4.187 E0.00112
G1 X1.953 Y2.801 E0.00616
G1 X1.808 Y2.549 E0.00112
G1 X2.608 Y1.164 E0.00616
G1 X2.898 Y1.164 E0.00112
G1 X3.698 Y-0.222 E0.00616
G1 X3.553 Y-0.474 E0.00112
G1 X4.353 Y-1.859 E0.00616
G1 X4.644 Y-1.859 E0.00112
G1 X5.181 Y-2.790 E0.00414
G1 X5.192 Y-2.772 E0.00008
G1 E-0.20000 F120.00000
G1 Z1.320000 F30000.000
G1 X5.859 Y-0.437
G1 Z0.820000
G1 E0.20000 F120.00000
G1 F1200.000
G1 X5.894 Y0.000 E0.00169
G1 X5.821 Y0.922 E0.00356
G1 X5.605 Y1.821 E0.00356
G1 X5.251 Y2.676 E0.00356
G1 X4.768 Y3.464 E0.00356
G1 X4.167 Y4.167 E0.00356
G1 X3.464 Y4.768 E0.00356
G1 X2.970 Y5.071 E0.00223
G1 X3.698 Y3.809 E0.00561
G1 X3.553 Y3.557 E0.00112
G1 X4.353 Y2.171 E0.00616
G1 X4.644 Y2.171 E0.00112
G1 X5.444 Y0.786 E0.00616
G1 X5.298 Y0.534 E0.00112
G1 X5.803 Y-0.340 E0.00388
G1 E-0.20000 F120.00000
G1 Z1.320000 F30000.000
G1 X2.676 Y5.251
G1 Z0.820000
G1 E0.20000 F120.00000
G1 F1200.000
G1 X2.543 Y5.306 E0.00055
G1 X2.608 Y5.194 E0.00050
G1 X2.765 Y5.194 E0.00060
;LAYER_CHANGE
;Z:1.23
;HEIGHT:0.41
G1 E-0.20000 F120.00000
G1 Z1.320000 F30000.000
G1 X3.136 Y5.801
G1 Z1.230000
G1 E0.20000 F120.00000
;TYPE:External perimeter
G1 F1200.000
G1 X2.999 Y5.885 E0.00058
G1 X2.041 Y6.282 E0.00369
G1 X1.033 Y6.524 E0.00369
G1 X0.000 Y6.605 E0.00369
G1 X-1.033 Y6.524 E0.00369
G1 X-2.041 Y6.282 E0.00369
G1 X-2.999 Y5.885 E0.00369
G1 X-3.882 Y5.344 E0.00369
G1 X-4.670 Y4.670 E0.00369
G1 X-5.344 Y3.882 E0.00369
G1 X-5.885 Y2.999 E0.00369
G1 X-6.282 Y2.041 E0.00369
G1 X-6.524 Y1.033 E0.00369
G1 X-6.605 Y0.000 E0.00369
G1 X-6.524 Y-1.033 E0.00369
G1 X-6.282 Y-2.041 E0.00369
G1 X-5.885 Y-2.999 E0.00369
G1 X-5.344 Y-3.882 E0.00369
G1 X-4.670 Y-4.670 E0.00369
G1 X-3.882 Y-5.344 E0.00369
G1 X-2.999 Y-5.885 E0.00369
G1 X-2.041 Y-6.282 E0.00369
G1 X-1.033 Y-6.524 E0.00369
G1 X0.000 Y-6.605 E0.00369
G1 X1.033 Y-6.524 E0.00369
G1 X2.041 Y-6.282 E0.00369
G1 X2.999 Y-5.885 E0.00369
G1 X3.882 Y-5.344 E0.00369
G1 X4.670 Y-4.670 E0.00369
G1 X5.344 Y-3.882 E0.00369
G1 X5.885 Y-2.999 E0.00369
G1 X6.282 Y-2.041 E0.00369
G1 X6.524 Y-1.033 E0.00369
G1 X6.605 Y0.000 E0.00369
G1 X6.524 Y1.033 E0.00369
G1 X6.282 Y2.041 E0.00369
G1 X5.885 Y2.999 E0.00369
G1 X5.344 Y3.882 E0.00369
G1 X4.670 Y4.670 E0.00369
G1 X3.882 Y5.344 E0.00369
G1 X3.232 Y5.742 E0.00272
G1 E-0.20000 F120.00000
G1 Z1.730000 F30000.000
G1 X5.652 Y-1.624
G1 Z1.230000
G1 E0.20000 F120.00000
;TYPE:Internal infill
G1 F1200.000
G1 X5.298 Y-2.237 E0.00272
G1 X5.377 Y-2.373 E0.00060
G1 X5.626 Y-1.734 E0.00264
G1 E-0.20000 F120.00000
G1 Z1.730000 F30000.000
G1 X4.417 Y-3.875
G1 Z1.230000
G1 E0.20000 F120.00000
G1 F1200.000
G1 X4.353 Y-3.875 E0.00025
G1 X4.219 Y-4.107 E0.00103
G1 X4.344 Y-3.960 E0.00074
G1 E-0.20000 F120.00000
G1 Z1.730000 F30000.000
G1 X5.605 Y1.821
G1 Z1.230000
G1 E0.20000 F120.00000
G1 F1200.000
G1 X5.484 Y2.114 E0.00122
